X:6
T:Bank of Ireland
Z: id:dc-reel-7
M:C
L:1/8
K:D Mixolydian
AB|c2AB cBAG|EGDG EGAB|c2AB cBAG|Add^c dfed|!
c2AB cBAG|EGDG EGAB|c2AB cBAG|Add^c d2:|!
de|f3d e2fe|dfed ^cAA2|f3d e2fg|afge d2^cd|!
eaa2 efge|dged cAGE| Add^c defg|afge d2:|!

